X:1
T:Title
%%score ( 1 2 ) { ( 3 4 ) | ( 5 6 ) }
L:1/8
Q:1/4=120
M:6/8
K:G
V:1 treble nm="MusicXML Part"
V:2 treble 
V:3 treble nm="MusicXML Part"
V:4 treble 
V:5 bass 
V:6 bass 
V:1
"^Andantino""^Vögleins Begräbnis, Op. 75""^p" G"^Einfach und inng"AB c2 c | (B2 A) G3 | %2
w: Un- ter den ro- ten|Blu * men|
w: Hast uns so schön ge-|sun * gen,|
w: Hat- test noch uns'- re|Ro * sen|
 E"^Carl Reinecke (1824-1910)\nLudwig Bechstein (1801-1860)"FG A2 A | F6 |!<(! x6!<)! | %5
w: schlumm- 're lieb Vö- ge-|lein!||
w: ha- ben dich so ge-|liebt!||
w: mit dei- nem Lied ge-|weckt,||
!>(! x6!>)! | x3 AG x | x6 :| %8
w: |||
w: |||
w: |||
V:2
 x6 | x6 | x6 | x6 | GAB c2 e | d2 c BAG | (F3 A)GF | !fermata!E6 :| %8
w: ||||Un- ter den ro- ten|Blu- men gra- ben wir|trau * rig dich|ein.|
w: ||||Kehl- chen hat aus- ge-|klun- gen, ach, wie uns|das * * be-|trübt!|
w: ||||ha- ben nun mit Zeit-|lo- sen, Vö- ge- lein,|dich zu * ge-|deckt.|
V:3
 (G[FA][GB]) c2 c | (B2 A) G3 | (EFG) A2 A | [^DF]6 | ([EG][FA][GB]) ([Ac]2 [Ge]) | %5
 (d2 c) (.[GB].A.G) |"^:" x3 (AGF) | E6 :| %8
V:4
 x3 A3 | F3 x3 | E3 E3 | x6 | x6 | F3 x3 | x3 ^D3 | !fermata!E6 :| %8
V:5
"^p" E3 [A,E]3 | [B,^D]3 E3 | C3 [F,C]3 | B,3 B,3- |!<(! B,3 [A,,A,]3 |!>(! A,3 (.G,.A,!<)!.B,) | %6
 C3 (B,2 A,) | G,6!>)! :| %8
V:6
 x6 | x6 | x6 | x6 | E,3 x3 | D,3 x3 | x3 B,,3 | !fermata!E,6 :| %8

